assets/images/contacts/phone.svg

<svg width="21" height="21" viewBox="0 0 21 21" fill="none" xmlns="http://www.w3.org/2000/svg">
<path d="M14.6205 11.33L12.1805 13.77C9.69633 12.512 7.67844 10.4942 6.42048 8.01L8.86048 5.57L5.95048 0L3.09048 0.9C2.04613 1.23508 1.16231 1.94404 0.608641 2.89082C0.0549677 3.8376 -0.129555 4.95551 0.0904836 6.03C0.856003 9.46998 2.5861 12.6205 5.07803 15.1125C7.56996 17.6044 10.7205 19.3345 14.1605 20.1C15.235 20.32 16.3529 20.1355 17.2997 19.5818C18.2464 19.0282 18.9554 18.1444 19.2905 17.1L20.1905 14.28L14.6205 11.33ZM17.8605 16.6C17.6316 17.284 17.164 17.8627 16.5432 18.23C15.9225 18.5973 15.1902 18.7286 14.4805 18.6C11.3224 17.9038 8.42848 16.3212 6.13824 14.0381C3.848 11.7549 2.25649 8.86588 1.55048 5.71C1.42185 5.00029 1.55322 4.26799 1.92052 3.64724C2.28783 3.0265 2.86648 2.55886 3.55048 2.33L5.17048 1.81L7.02048 5.28L5.36048 6.95L4.59048 7.72L5.08048 8.72C6.49343 11.471 8.74072 13.7043 11.5005 15.1L12.5005 15.59L13.2705 14.82L14.9405 13.16L18.4105 14.97L17.8605 16.6ZM14.3405 8.1H15.8405C15.8405 7.10544 15.4454 6.15161 14.7421 5.44835C14.0389 4.74509 13.085 4.35 12.0905 4.35V5.85C12.6872 5.85 13.2595 6.08705 13.6815 6.50901C14.1034 6.93097 14.3405 7.50326 14.3405 8.1ZM18.3405 8.1H19.8405C19.8378 6.04538 19.0205 4.07568 17.5676 2.62284C16.1148 1.17001 14.1451 0.352646 12.0905 0.35V1.85C13.7481 1.85 15.3378 2.50848 16.5099 3.68058C17.682 4.85268 18.3405 6.4424 18.3405 8.1Z" fill="#0029FF"/>
</svg>

<svg width="21" height="21" fill="none" xmlns="http://www.w3.org/2000/svg"><path d="M14.62 11.33l-2.44 2.44a13.08 13.08 0 01-5.76-5.76l2.44-2.44L5.95 0 3.09.9a4.45 4.45 0 00-3 5.13A18.54 18.54 0 0014.16 20.1a4.45 4.45 0 005.13-3l.9-2.82-5.57-2.95zm3.24 5.27a3 3 0 01-3.38 2A17 17 0 011.55 5.71a3 3 0 012-3.38l1.62-.52 1.85 3.47-1.66 1.67-.77.77.49 1a14.65 14.65 0 006.42 6.38l1 .49.77-.77 1.67-1.66 3.47 1.81-.55 1.63zm-3.52-8.5h1.5a3.75 3.75 0 00-3.75-3.75v1.5a2.25 2.25 0 012.25 2.25zm4 0h1.5A7.76 7.76 0 0012.09.35v1.5a6.25 6.25 0 016.25 6.25z" fill="#0029FF"/></svg>
